X: 073
M: C|
L: 1/8
K: D
|:\
fdad bdad | gebe c'ebe | fdad bdaf | gbag fdda |
fdad bdad | gfef gabg | Bdce dfeg | fbag (fd)d2 |]


